src/components/00-materials/images-raw/Electric Repairing.svg

<svg width="96" height="96" viewBox="0 0 96 96" fill="none" xmlns="http://www.w3.org/2000/svg">
<path d="M63.04 5V26.96M47 74.04V91V74.04ZM20.26 27V47.48C20.2944 54.5411 23.1297 61.2999 28.1433 66.2722C33.1569 71.2446 39.9389 74.0239 47 74C54.0611 74.0239 60.8431 71.2446 65.8567 66.2722C70.8703 61.2999 73.7056 54.5411 73.74 47.48V27H20.26ZM30.96 5V26.96V5Z" stroke="#00008F" stroke-width="2" stroke-linecap="round" stroke-linejoin="round"/>
<path d="M39.15 64.86C39.0725 64.8883 38.9875 64.8883 38.91 64.86C38.8134 64.8001 38.7406 64.7085 38.7042 64.6009C38.6677 64.4932 38.6697 64.3763 38.71 64.27L44.18 51H39.18C39.0925 50.9943 39.0075 50.9688 38.9313 50.9255C38.8551 50.8822 38.7897 50.8222 38.74 50.75C38.6914 50.6775 38.6655 50.5923 38.6655 50.505C38.6655 50.4178 38.6914 50.3325 38.74 50.26L46 35.44C46.0465 35.3655 46.1114 35.3043 46.1885 35.2622C46.2656 35.2202 46.3522 35.1987 46.44 35.2H54.25C54.3378 35.1987 54.4244 35.2202 54.5015 35.2622C54.5786 35.3043 54.6435 35.3655 54.69 35.44C54.7394 35.514 54.7658 35.601 54.7658 35.69C54.7658 35.779 54.7394 35.866 54.69 35.94L49 45.08H54.76C54.8548 45.081 54.9471 45.11 55.0254 45.1634C55.1037 45.2168 55.1645 45.2921 55.2 45.38C55.24 45.4664 55.2565 45.5619 55.2477 45.6567C55.2389 45.7516 55.2052 45.8424 55.15 45.92L39.54 64.71C39.4882 64.7597 39.427 64.7985 39.3601 64.8243C39.2931 64.85 39.2217 64.8622 39.15 64.86V64.86Z" stroke="#00008F" stroke-width="2" stroke-linecap="round" stroke-linejoin="round"/>
</svg>

<svg width="96" height="96" viewBox="0 0 96 96" fill="none" xmlns="http://www.w3.org/2000/svg"><path d="M63.04 5v21.96M47 74.04V91 74.04zM20.26 27v20.48A26.65 26.65 0 0047 74a26.65 26.65 0 0026.74-26.52V27H20.26zm10.7-22v21.96V5z" stroke="#00008F" stroke-width="2" stroke-linecap="round" stroke-linejoin="round"/><path d="M39.15 64.86a.35.35 0 01-.24 0 .49.49 0 01-.2-.59L44.18 51h-5a.58.58 0 01-.44-.25.44.44 0 010-.49L46 35.44a.51.51 0 01.44-.24h7.81a.51.51 0 01.516.49.45.45 0 01-.076.25L49 45.08h5.76a.48.48 0 01.44.3.54.54 0 01-.05.54L39.54 64.71a.54.54 0 01-.39.15v0z" stroke="#00008F" stroke-width="2" stroke-linecap="round" stroke-linejoin="round"/></svg>
